X: 1

T:Sleepers Awake! % title
C:Johann Sebastian Bach % composer
O:Traditional Lutheran Chorale % origin.
M:4/4 % meter
N:Requires notes up to C''
L:1/4 % length of shortest note
Q: % tempo
K:C % key
V:1 % voice 1
G c/d/ e e | d f e G | F e/c/ d F | E B c2 :|
g g2 f/e/ | d/c/ d/c/ B/A/ G | A/B/ c/d/ e/d/ f/e/ |
d/c/ e d2 | G e ^f2 | g c/B/ c2 | A ^f g2 | a c/B/ c2 |
c' b/a/ g2 | (3a/g/^f/ g d B | G z E2 | ^F2 G2 |]

